swiss/communes/8512.svg

<?xml version="1.0" encoding="UTF-8" standalone="no"?>
<svg
   xmlns:dc="http://purl.org/dc/elements/1.1/"
   xmlns:cc="http://web.resource.org/cc/"
   xmlns:rdf="http://www.w3.org/1999/02/22-rdf-syntax-ns#"
   xmlns:svg="http://www.w3.org/2000/svg"
   xmlns="http://www.w3.org/2000/svg"
   xmlns:xlink="http://www.w3.org/1999/xlink"
   xmlns:sodipodi="http://sodipodi.sourceforge.net/DTD/sodipodi-0.dtd"
   xmlns:inkscape="http://www.inkscape.org/namespaces/inkscape"
   height="763"
   width="603"
   version="1.0"
   id="svg20"
   sodipodi:version="0.32"
   inkscape:version="0.45.1"
   sodipodi:docname="Thundorf-coat of arms.svg"
   sodipodi:docbase="C:\Users\Camilo\Documents\Escudos de Suiza"
   inkscape:output_extension="org.inkscape.output.svg.inkscape">
  <metadata
     id="metadata31">
    <rdf:RDF>
      <cc:Work
         rdf:about="">
        <dc:format>image/svg+xml</dc:format>
        <dc:type
           rdf:resource="http://purl.org/dc/dcmitype/StillImage" />
        <dc:date>07-AUG-2006</dc:date>
        <dc:creator>
          <cc:Agent>
            <dc:title>Jérôme BLUM (wagner51)</dc:title>
          </cc:Agent>
        </dc:creator>
        <cc:license
           rdf:resource="http://creativecommons.org/licenses/GPL/2.0/" />
        <dc:coverage />
        <dc:description>Gabarit pour le Projet:Blasons de WIkipédia</dc:description>
        <dc:subject>
          <rdf:Bag>
            <rdf:li>blason suisse modèle gabarit projet blasons</rdf:li>
          </rdf:Bag>
        </dc:subject>
        <dc:language>fr</dc:language>
        <dc:title>Gabrit d'un blason suisse</dc:title>
      </cc:Work>
      <cc:License
         rdf:about="http://creativecommons.org/licenses/GPL/2.0/">
        <cc:permits
           rdf:resource="http://web.resource.org/cc/Reproduction" />
        <cc:permits
           rdf:resource="http://web.resource.org/cc/Distribution" />
        <cc:requires
           rdf:resource="http://web.resource.org/cc/Notice" />
        <cc:permits
           rdf:resource="http://web.resource.org/cc/DerivativeWorks" />
        <cc:requires
           rdf:resource="http://web.resource.org/cc/ShareAlike" />
        <cc:requires
           rdf:resource="http://web.resource.org/cc/SourceCode" />
      </cc:License>
    </rdf:RDF>
  </metadata>
  <defs
     id="defs29">
    <linearGradient
       id="linearGradient2893">
      <stop
         style="stop-color:#ffffff;stop-opacity:0.3137255;"
         offset="0"
         id="stop2895" />
      <stop
         id="stop2897"
         offset="0.19"
         style="stop-color:#ffffff;stop-opacity:0.25098041;" />
      <stop
         style="stop-color:#6b6b6b;stop-opacity:0.1254902;"
         offset="0.60000002"
         id="stop2901" />
      <stop
         style="stop-color:#000000;stop-opacity:0.1254902;"
         offset="1"
         id="stop2899" />
    </linearGradient>
    <radialGradient
       inkscape:collect="always"
       xlink:href="#linearGradient2893"
       id="radialGradient3236"
       gradientUnits="userSpaceOnUse"
       gradientTransform="matrix(1.215027,1.531577e-24,1.464684e-23,1.266667,-839.1924,-490.4894)"
       cx="858.04236"
       cy="579.93323"
       fx="858.04236"
       fy="579.93323"
       r="300" />
  </defs>
  <sodipodi:namedview
     inkscape:window-height="750"
     inkscape:window-width="1280"
     inkscape:pageshadow="2"
     inkscape:pageopacity="0.0"
     guidetolerance="10.0"
     gridtolerance="10.0"
     objecttolerance="10.0"
     borderopacity="1.0"
     bordercolor="#666666"
     pagecolor="#ffffff"
     id="base"
     inkscape:zoom="0.67103539"
     inkscape:cx="301.5"
     inkscape:cy="381.5"
     inkscape:window-x="-8"
     inkscape:window-y="-8"
     inkscape:current-layer="layer2"
     showgrid="true"
     showguides="false" />
  <desc
     id="desc22">Coat of Arms of Canton of Freiburg (Fribourg)</desc>
  <g
     inkscape:groupmode="layer"
     id="layer1"
     inkscape:label="Fond écu"
     style="display:inline"
     sodipodi:insensitive="true">
    <path
       id="path1899"
       d="M 1.5,1.49998 L 1.5,460.3679 C 1.5,626.6785 135.81456,761.5 301.49999,761.5 C 467.18543,761.5 601.5,626.6785 601.5,460.3679 L 601.5,1.49998 L 1.5,1.49998 z "
       style="fill:#e20909;fill-opacity:1" />
    <rect
       style="fill:#ffffff;fill-opacity:1;fill-rule:nonzero;stroke:#000000;stroke-width:2.81968856;stroke-miterlimit:4;stroke-dasharray:none;stroke-opacity:1"
       id="rect4139"
       width="600.1803"
       height="197.18031"
       x="1.4098443"
       y="274.40982" />
  </g>
  <g
     inkscape:groupmode="layer"
     id="layer2"
     inkscape:label="Meubles"
     style="display:inline"
     sodipodi:insensitive="true">
    <path
       sodipodi:type="star"
       style="fill:#ffffff;fill-opacity:1;fill-rule:nonzero;stroke:#000000;stroke-width:2.71923161;stroke-miterlimit:4;stroke-dasharray:none;stroke-opacity:1"
       id="path2178"
       sodipodi:sides="6"
       sodipodi:cx="283.14453"
       sodipodi:cy="189.25977"
       sodipodi:r1="102.65325"
       sodipodi:r2="51.326626"
       sodipodi:arg1="0.87791678"
       sodipodi:arg2="1.4015156"
       inkscape:flatsided="false"
       inkscape:rounded="0"
       inkscape:randomized="0"
       d="M 348.71485,268.24219 L 291.7917,239.85274 L 247.5289,285.53654 L 243.65332,222.04492 L 181.95859,206.55411 L 235.00615,171.45195 L 217.57421,110.27734 L 274.49736,138.66679 L 318.76016,92.982993 L 322.63575,156.47461 L 384.33048,171.96542 L 331.28292,207.06758 L 348.71485,268.24219 z "
       transform="matrix(1.0343339,-0.3877964,0.3884058,1.032711,-246.37574,47.613093)" />
    <path
       transform="matrix(1.0361328,-0.3858843,0.3869046,1.0334189,-65.10081,526.93774)"
       d="M 348.71485,268.24219 L 291.7917,239.85274 L 247.5289,285.53654 L 243.65332,222.04492 L 181.95859,206.55411 L 235.00615,171.45195 L 217.57421,110.27734 L 274.49736,138.66679 L 318.76016,92.982993 L 322.63575,156.47461 L 384.33048,171.96542 L 331.28292,207.06758 L 348.71485,268.24219 z "
       inkscape:randomized="0"
       inkscape:rounded="0"
       inkscape:flatsided="false"
       sodipodi:arg2="1.4015156"
       sodipodi:arg1="0.87791678"
       sodipodi:r2="51.326626"
       sodipodi:r1="102.65325"
       sodipodi:cy="189.25977"
       sodipodi:cx="283.14453"
       sodipodi:sides="6"
       id="path4141"
       style="fill:#ffffff;fill-opacity:1;fill-rule:nonzero;stroke:#000000;stroke-width:2.71923161;stroke-miterlimit:4;stroke-dasharray:none;stroke-opacity:1"
       sodipodi:type="star" />
    <path
       transform="matrix(1.0343339,-0.3877964,0.3884058,1.032711,116.62426,47.613093)"
       d="M 348.71485,268.24219 L 291.7917,239.85274 L 247.5289,285.53654 L 243.65332,222.04492 L 181.95859,206.55411 L 235.00615,171.45195 L 217.57421,110.27734 L 274.49736,138.66679 L 318.76016,92.982993 L 322.63575,156.47461 L 384.33048,171.96542 L 331.28292,207.06758 L 348.71485,268.24219 z "
       inkscape:randomized="0"
       inkscape:rounded="0"
       inkscape:flatsided="false"
       sodipodi:arg2="1.4015156"
       sodipodi:arg1="0.87791678"
       sodipodi:r2="51.326626"
       sodipodi:r1="102.65325"
       sodipodi:cy="189.25977"
       sodipodi:cx="283.14453"
       sodipodi:sides="6"
       id="path4143"
       style="fill:#ffffff;fill-opacity:1;fill-rule:nonzero;stroke:#000000;stroke-width:2.71923161;stroke-miterlimit:4;stroke-dasharray:none;stroke-opacity:1"
       sodipodi:type="star" />
  </g>
  <g
     inkscape:groupmode="layer"
     id="layer3"
     inkscape:label="Reflet final"
     style="display:inline"
     sodipodi:insensitive="true">
    <path
       style="fill:url(#radialGradient3236);fill-opacity:1"
       d="M 1.5,1.5 L 1.5,460.3679 C 1.5,626.67854 135.81454,761.5 301.49993,761.5 C 467.1854,761.5 601.5,626.67854 601.5,460.3679 L 601.5,1.5 L 1.5,1.5 z "
       id="path2346" />
  </g>
  <g
     inkscape:groupmode="layer"
     id="layer4"
     inkscape:label="Contour final"
     style="display:inline"
     sodipodi:insensitive="true">
    <path
       style="fill:none;fill-opacity:1;stroke:#000000;stroke-width:3;stroke-miterlimit:4;stroke-dasharray:none;stroke-opacity:1"
       d="M 1.5,1.5 L 1.5,460.36794 C 1.5,626.67854 135.81454,761.5 301.49993,761.5 C 467.1854,761.5 601.5,626.67854 601.5,460.36794 L 601.5,1.5 L 1.5,1.5 z "
       id="path3239" />
  </g>
</svg>

<svg xmlns="http://www.w3.org/2000/svg" xmlns:xlink="http://www.w3.org/1999/xlink" height="763" width="603" version="1.0"><defs><radialGradient xlink:href="#a" id="b" gradientUnits="userSpaceOnUse" gradientTransform="matrix(1.21503 0 0 1.26667 -839.192 -490.49)" cx="858.042" cy="579.933" fx="858.042" fy="579.933" r="300"/><linearGradient id="a"><stop style="stop-color:#fff;stop-opacity:.3137255" offset="0"/><stop offset=".19" style="stop-color:#fff;stop-opacity:.25098041"/><stop style="stop-color:#6b6b6b;stop-opacity:.1254902" offset=".6"/><stop style="stop-color:#000;stop-opacity:.1254902" offset="1"/></linearGradient></defs><g style="display:inline"><path d="M1.5 1.5v458.868c0 166.31 134.315 301.132 300 301.132s300-134.822 300-301.132V1.5H1.5z" style="fill:#e20909;fill-opacity:1"/><path style="fill:#fff;fill-opacity:1;fill-rule:nonzero;stroke:#000;stroke-width:2.81968856;stroke-miterlimit:4;stroke-dasharray:none;stroke-opacity:1" d="M1.41 274.41h600.18v197.18H1.41z"/></g><g style="display:inline"><path style="fill:#fff;fill-opacity:1;fill-rule:nonzero;stroke:#000;stroke-width:2.71923161;stroke-miterlimit:4;stroke-dasharray:none;stroke-opacity:1" d="m348.715 268.242-56.923-28.39-44.263 45.685-3.876-63.492-61.694-15.49 53.047-35.103-17.432-61.175 56.923 28.39 44.263-45.684 3.876 63.492 61.694 15.49-53.047 35.103 17.432 61.174z" transform="matrix(1.03433 -.3878 .3884 1.03271 -246.376 47.613)"/><path transform="matrix(1.03613 -.38588 .3869 1.03342 -65.1 526.938)" d="m348.715 268.242-56.923-28.39-44.263 45.685-3.876-63.492-61.694-15.49 53.047-35.103-17.432-61.175 56.923 28.39 44.263-45.684 3.876 63.492 61.694 15.49-53.047 35.103 17.432 61.174z" style="fill:#fff;fill-opacity:1;fill-rule:nonzero;stroke:#000;stroke-width:2.71923161;stroke-miterlimit:4;stroke-dasharray:none;stroke-opacity:1"/><path transform="matrix(1.03433 -.3878 .3884 1.03271 116.624 47.613)" d="m348.715 268.242-56.923-28.39-44.263 45.685-3.876-63.492-61.694-15.49 53.047-35.103-17.432-61.175 56.923 28.39 44.263-45.684 3.876 63.492 61.694 15.49-53.047 35.103 17.432 61.174z" style="fill:#fff;fill-opacity:1;fill-rule:nonzero;stroke:#000;stroke-width:2.71923161;stroke-miterlimit:4;stroke-dasharray:none;stroke-opacity:1"/></g><g style="display:inline"><path style="fill:url(#b);fill-opacity:1" d="M1.5 1.5v458.868c0 166.31 134.315 301.132 300 301.132s300-134.821 300-301.132V1.5H1.5z"/></g><g style="display:inline"><path style="fill:none;fill-opacity:1;stroke:#000;stroke-width:3;stroke-miterlimit:4;stroke-dasharray:none;stroke-opacity:1" d="M1.5 1.5v458.868c0 166.31 134.315 301.132 300 301.132s300-134.821 300-301.132V1.5H1.5z"/></g></svg>
